X:230
T:
R:polska
C:Sixarven
S:Av Sixarven i Burs; uppt. efter »Florsen» i Burs.
O:Gotland, Burs
M:3/4
L:1/16
K:F
F4 A2A2 c2c2|f3f a2a2 c'4|c4 c3B B2A2|A2c2 c=BcA F4|
f2fe g2gf a2a2|gbeg g4 f4::fgaf c2cc c2cc|c2f2 f2f2 f2f2|
efge [ce][ce][ce][ce] [ce][ce][ce][ce]|
A[Af][Af][Af] [Af][Af][Af][Af] [Af][Af][Af][Af]|
f3e e2d2 d2c2|c3B B2A2 A2G2|FGAB cdef g3a|abeg g4 f4:|

